icons/core/bell-fill-slash.svg

<svg width="32" height="32" viewBox="0 0 32 32" fill="none" xmlns="http://www.w3.org/2000/svg">
<path fill-rule="evenodd" clip-rule="evenodd" d="M23.5859 25L28.793 30.2071L30.2072 28.7929L3.20718 1.79289L1.79297 3.20711L6.75827 8.1724C6.26939 9.35141 5.99958 10.6442 5.99958 12V16.5858L3.58537 19C3.2103 19.3751 2.99959 19.8838 2.99959 20.4142V23C2.99959 24.1046 3.89502 25 4.99959 25L10.9996 25C10.9996 27.7614 13.2382 30 15.9996 30C18.761 30 20.9996 27.7614 20.9996 25L23.5859 25ZM15.9996 2C13.669 2 11.5246 2.79727 9.82431 4.13396L28.9789 23.2886C28.9926 23.1944 28.9996 23.098 28.9996 23V20.4142C28.9996 19.8838 28.7889 19.3751 28.4138 19L25.9996 16.5858V12C25.9996 6.47715 21.5224 2 15.9996 2ZM12.9996 25H18.9996C18.9996 26.6569 17.6564 28 15.9996 28C14.3427 28 12.9996 26.6569 12.9996 25Z" fill="black"/>
</svg>

<svg viewBox="0 0 32 32" xmlns="http://www.w3.org/2000/svg"><path fill-rule="evenodd" d="M23.586 25l5.207 5.207 1.414-1.414-27-27-1.414 1.414 4.965 4.965A9.97 9.97 0 006 12v4.586L3.585 19A2 2 0 003 20.414V23a2 2 0 002 2h6a5 5 0 0010 0h2.586zM16 2c-2.331 0-4.475.797-6.176 2.134L28.98 23.289c.014-.095.02-.191.02-.289v-2.586A2 2 0 0028.415 19L26 16.586V12c0-5.523-4.478-10-10-10zm-3 23h6a3 3 0 01-6 0z"/></svg>
